usr/share/icons/biglinux-icons-material/16/actions/align-horizontal-left-out.svg

<svg xmlns="http://www.w3.org/2000/svg" viewBox="0 0 16 16"><path d="M5 2v12h1V2H5zm2 0v5h7V2H7zm1 1h5v3H8V3zM2 9v5h2V9H2zm5 0v5h5V9H7zm1 1h3v3H8v-3z" style="fill:currentColor;fill-opacity:1;stroke:none;color:#dedede"/></svg>

<svg xmlns="http://www.w3.org/2000/svg" viewBox="0 0 16 16">
  <defs id="defs3051">
    <style type="text/css" id="current-color-scheme">
      .ColorScheme-Text {
        color:#dedede;
      }
      </style>
  </defs>
 <path style="fill:currentColor;fill-opacity:1;stroke:none" 
       d="M 5 2 L 5 14 L 6 14 L 6 2 L 5 2 z M 7 2 L 7 7 L 14 7 L 14 2 L 7 2 z M 8 3 L 13 3 L 13 6 L 8 6 L 8 3 z M 2 9 L 2 14 L 4 14 L 4 9 L 2 9 z M 7 9 L 7 14 L 12 14 L 12 9 L 7 9 z M 8 10 L 11 10 L 11 13 L 8 13 L 8 10 z "
     class="ColorScheme-Text"
     />
</svg>
